packages/core/src/svgs/btc2.svg

<svg width="24" height="24" viewBox="0 0 24 24" fill="none" xmlns="http://www.w3.org/2000/svg">
<g clip-path="url(#clip0_31_7538)">
<path d="M0 0H24V24H0V0Z" fill="#F6931A"/>
<path d="M10.9843 6.3859C11.0228 6.39447 11.0614 6.39447 11.1043 6.3859C11.1214 6.38161 11.13 6.36876 11.1343 6.34733L11.4171 4.7359C11.4171 4.71876 11.43 4.71019 11.4471 4.71447L13.02 5.03161C13.0286 5.03161 13.0328 5.0359 13.0371 5.04447L13.0457 5.0659L13.0328 5.19447C12.9442 5.72185 12.8542 6.249 12.7628 6.7759L12.7757 6.78447L13.6928 6.99876C13.7045 7.00183 13.7167 7.00227 13.7286 7.00004C13.7404 6.99782 13.7517 6.99299 13.7614 6.9859C13.7813 6.97142 13.7951 6.95001 13.8 6.9259L14.0786 5.3059C14.0828 5.28876 14.0914 5.2759 14.1043 5.26304C14.1105 5.2588 14.1175 5.25585 14.1248 5.25438C14.1322 5.25291 14.1398 5.25294 14.1471 5.25447C14.6443 5.34019 15.1586 5.46019 15.6771 5.56304C15.7071 5.57161 15.72 5.58876 15.7157 5.61876C15.63 6.15447 15.5357 6.69876 15.4328 7.25161C15.4114 7.36733 15.4414 7.40161 15.54 7.44447C15.9064 7.5972 16.2347 7.82886 16.5014 8.12295C16.768 8.41704 16.9666 8.76631 17.0828 9.1459C17.16 9.43304 17.1428 9.69447 17.1386 9.99447C17.1144 10.3655 17.0033 10.7256 16.8142 11.0458C16.625 11.3659 16.3633 11.6371 16.05 11.8373C15.6757 12.0869 15.261 12.2696 14.8243 12.3773C13.9843 12.5788 13.0114 12.6688 12.1586 12.5016C12 12.4673 11.8457 12.4845 11.6914 12.4716C11.326 12.4389 10.9579 12.4834 10.6108 12.6023C10.2638 12.7211 9.94568 12.9117 9.67713 13.1616C9.22069 13.6237 8.89912 14.2016 8.74713 14.833V14.8759C8.7557 14.893 8.76856 14.9059 8.78141 14.9102L8.89713 14.9445C10.0714 15.1673 11.5371 15.5702 12.6171 15.6473C13.6928 15.7202 14.4728 14.653 14.1043 13.5602C14.1029 13.5552 14.1026 13.5499 14.1033 13.5447C14.1041 13.5396 14.1059 13.5346 14.1086 13.5302L14.1214 13.5173L14.1343 13.513C14.8414 13.4702 15.3043 13.2988 15.9343 13.0202C16.02 12.9773 16.08 13.0588 16.1486 13.1402C16.5126 13.6054 16.6939 14.1877 16.6586 14.7773C16.6483 15.3358 16.4639 15.8771 16.1313 16.3258C15.7986 16.7744 15.3342 17.1081 14.8028 17.2802C14.5157 17.3702 14.3014 17.4173 14.16 17.4216C14.0164 17.4274 13.8733 17.4417 13.7314 17.4645C13.71 17.4645 13.6886 17.4773 13.6714 17.4945C13.6538 17.512 13.6419 17.5344 13.6371 17.5588L13.3543 19.2302C13.3543 19.2473 13.3414 19.2602 13.3286 19.273C13.3212 19.2782 13.3127 19.2817 13.3038 19.2832C13.2949 19.2847 13.2858 19.2841 13.2771 19.2816L11.7643 18.9816C11.753 18.9815 11.7422 18.9768 11.7343 18.9688C11.7284 18.9599 11.7254 18.9494 11.7257 18.9388L11.7386 18.7802C11.8259 18.2576 11.9116 17.7347 11.9957 17.2116L11.9914 17.1945C11.988 17.1894 11.9836 17.185 11.9786 17.1816C11.9736 17.1775 11.9677 17.1746 11.9614 17.173L11.0743 17.023C11.0603 17.0201 11.0458 17.0201 11.0317 17.023C11.0177 17.026 11.0045 17.0318 10.9928 17.0402C10.9714 17.0573 10.9543 17.083 10.95 17.1173L10.6843 18.673C10.6757 18.733 10.6414 18.7588 10.5857 18.7459L9.0857 18.4459C9.07789 18.4444 9.07045 18.4413 9.06383 18.4369C9.05721 18.4325 9.05153 18.4268 9.04713 18.4202C9.03976 18.4056 9.03822 18.3887 9.04284 18.373L9.31284 16.8045C9.31635 16.7855 9.31333 16.7658 9.30427 16.7488C9.2992 16.7401 9.29239 16.7326 9.28428 16.7267C9.27617 16.7208 9.26692 16.7166 9.25713 16.7145L6.92999 16.2516C6.86999 16.243 6.84427 16.1959 6.86141 16.123C6.97713 15.5102 7.13999 14.9059 7.33713 14.3188C7.53717 13.7164 7.79854 13.1362 8.11713 12.5873C8.7257 11.5588 9.85713 11.083 10.9457 10.9802C11.19 10.9545 11.4257 10.9245 11.6743 10.9416C12.2186 10.9845 12.75 11.0402 13.2943 11.1088C13.3969 11.118 13.5002 11.118 13.6028 11.1088C14.3528 11.0573 14.8586 10.423 14.7171 9.6259C14.5843 8.88018 13.8728 8.7259 13.2 8.56733C12.7843 8.46876 12.3771 8.38304 11.9743 8.31018C11.9057 8.29733 11.8628 8.32733 11.85 8.3959L11.5971 9.88304C11.5936 9.90782 11.5814 9.93056 11.5628 9.94733C11.5537 9.95597 11.5429 9.9627 11.5312 9.96711C11.5194 9.97153 11.5068 9.97355 11.4943 9.97304C10.8086 9.94304 10.1228 10.0159 9.47141 10.2816C9.33062 10.3389 9.18919 10.3946 9.04713 10.4488L9.03427 10.4445L9.02999 10.4359V10.423L9.44141 8.07019C9.48427 7.84304 9.39856 7.67161 9.20141 7.5559C8.9957 7.43161 8.68713 7.4059 8.44284 7.35447C8.43639 7.35237 8.43042 7.34902 8.42528 7.34461C8.42013 7.3402 8.4159 7.33481 8.41284 7.32876C8.40537 7.31738 8.40232 7.30366 8.40427 7.29019L8.63999 5.91876V5.9059L8.64856 5.90161C8.65095 5.89972 8.65371 5.89836 8.65667 5.89762C8.65962 5.89688 8.6627 5.89678 8.6657 5.89733C9.43784 6.0568 10.2093 6.21966 10.98 6.3859H10.9843Z" fill="white"/>
</g>
<defs>
<clipPath id="clip0_31_7538">
<rect width="24" height="24" fill="white"/>
</clipPath>
</defs>
</svg>

<svg xmlns="http://www.w3.org/2000/svg" width="24" height="24" fill="none" viewBox="0 0 24 24"><g clip-path="url(#a)"><path fill="#F6931A" d="M0 0h24v24H0z"/><path fill="#fff" d="M10.984 6.386a.3.3 0 0 0 .12 0q.025-.006.03-.039l.283-1.611c0-.017.013-.026.03-.022l1.573.318q.012 0 .017.012l.009.022-.013.128q-.133.792-.27 1.582l.013.008.917.215a.08.08 0 0 0 .068-.013.1.1 0 0 0 .039-.06l.279-1.62a.1.1 0 0 1 .025-.043.06.06 0 0 1 .043-.009c.497.086 1.012.206 1.53.309q.045.012.039.056-.129.803-.283 1.633c-.022.115.008.15.107.192a2.7 2.7 0 0 1 1.543 1.702c.077.287.06.548.056.848a2.37 2.37 0 0 1-1.089 1.843c-.374.25-.789.433-1.226.54-.84.202-1.813.292-2.665.125-.159-.035-.313-.018-.468-.03a2.62 2.62 0 0 0-2.014.69 3.57 3.57 0 0 0-.93 1.671v.043q.015.027.034.034l.116.034c1.174.223 2.64.626 3.72.703 1.076.073 1.856-.994 1.487-2.087a.04.04 0 0 1 .005-.03l.012-.013.013-.004c.707-.043 1.17-.214 1.8-.493.086-.043.146.039.215.12.364.465.545 1.048.51 1.637a2.68 2.68 0 0 1-1.856 2.503q-.431.135-.643.142-.216.008-.429.043-.032.002-.06.03a.12.12 0 0 0-.034.064l-.283 1.671c0 .017-.013.03-.025.043a.06.06 0 0 1-.052.009l-1.513-.3a.04.04 0 0 1-.03-.013.05.05 0 0 1-.008-.03l.013-.159q.13-.783.257-1.568l-.005-.017-.012-.013a.04.04 0 0 0-.018-.009l-.887-.15a.1.1 0 0 0-.081.017.12.12 0 0 0-.043.077l-.266 1.556q-.014.091-.098.073l-1.5-.3a.06.06 0 0 1-.039-.026.06.06 0 0 1-.004-.047l.27-1.569a.1.1 0 0 0-.009-.055.07.07 0 0 0-.047-.034l-2.327-.463c-.06-.009-.086-.056-.069-.129.116-.613.279-1.217.476-1.804.2-.603.462-1.183.78-1.732.609-1.028 1.74-1.504 2.829-1.607.244-.026.48-.056.728-.038.545.043 1.076.098 1.62.167q.155.013.309 0c.75-.052 1.256-.686 1.114-1.483-.133-.746-.844-.9-1.517-1.059a23 23 0 0 0-1.226-.257q-.103-.018-.124.086l-.253 1.487a.11.11 0 0 1-.066.084.1.1 0 0 1-.037.006c-.685-.03-1.371.043-2.023.309q-.21.086-.424.167l-.013-.005-.004-.008v-.013l.411-2.353c.043-.227-.042-.398-.24-.514-.205-.124-.514-.15-.758-.202a.05.05 0 0 1-.03-.025.06.06 0 0 1-.009-.039L8.64 5.92v-.013l.009-.004a.02.02 0 0 1 .017-.005q1.158.24 2.314.489z"/></g><defs><clipPath id="a"><path fill="#fff" d="M0 0h24v24H0z"/></clipPath></defs></svg>
